X:1
T:Radha Madhava simplified
T:Radha Madhava simplified
%%score ( 1 2 )
L:1/8
M:4/4
K:Eb
V:1 treble nm="Flute" snm="Fl."
V:2 treble 
V:1
 z4 z2 .cc | d3 c d2 f2 | (e4 e).efe | d3 e/d/ c4- | c2 [Cc][Cc] [Dd]3 [Cc] | [Dd]2 [Ff]2 [Ee]4- | %6
 [Ee][Ee][Ff][Ee] [Dd]3 [Ee]/.[Dd]/ | (c4 c).g.g.g | [Gg]2 [Ff][Ee] [Dd]4 | dd/d/ fe d3 e/d/ | %10
 c4 [Cc][Gg][Gg][Gg] | [Gg]2 [Ff][Ee] [Dd]4- | [Dd][Dd]/[Dd]/ [Ff][Ee] [Dd]3 [Ee]/[Dd]/ | %13
 ([Cc]4 c).e e/e/.e | e2 ee ddfe | z8 | [Ee]2 [Ee][Ee] [Dd][Dd][Ff][Ee] | [Dd]2 .[Cc][Cc] Cccc | %18
 g2 g4 fe | d3 e/d/ c4- | c[Cc][Cc][Cc] [Gg]2 [Gg]2- | [Gg]2 [Ff][Ee] [Dd]3 [Ee]/[Dd]/ | %22
 [Cc]6 .cc | d3 c d2 f2 | (e4 e).efe | d3 e/d/ c4- | c2 .[Cc][Cc] [Dd]3 [Cc] | [Dd]2 [Ff]2 [Ee]4- | %28
 [Ee][Ee][Ff][Ee] [Dd]3 [Ee]/.[Dd]/ | ([Cc]4 c).g.g.g | g2 fe (d4 | d)d/d/ fe d3 e/d/ | %32
 c4 [Cc][Gg][Gg][Gg] | [Gg]2 [Ff][Ee] [Dd]4- | [Dd].[Dd]/.[Dd]/ [Ff][Ee] [Dd]3 [Ee]/[Dd]/ | %35
 [Cc]4 c.e e/e/.e | z8 | z8 | [Ee]2 [Ee][Ee] [Dd][Dd][Ff][Ee] | z8 | g2 g4 fe | d3 e/d/ c4- | %42
 c[Cc][Cc][Cc] [Gg]2 [Gg]2- | [Gg]2 [Ff][Ee] [Dd]3 [Ee]/.[Dd]/ | [Cc]6 z2 | z8 | z8 | z8 | z8 | %49
 z8 | z8 | z8 |] %52
V:2
 x8 | x8 | x8 | x8 | x8 | x8 | x8 | C6 z2 | x8 | x8 | x8 | x8 | x8 | x8 | x8 | %15
 d2 .cc- c[Ee].[Ee][Ee] | x8 | x8 | x8 | x8 | x8 | x8 | x8 | x8 | x8 | x8 | x8 | x8 | x8 | x8 | %30
 x8 | x8 | x8 | x8 | x8 | x8 | e2 .ee .dd.fe | d2 .cc- c.[Ee][Ee][Ee] | x8 | %39
 [Dd]2 [Cc]C- C-[Cc-]/c/ cc | x8 | x8 | x8 | x8 | x8 | x8 | x8 | x8 | x8 | x8 | x8 | x8 |] %52

